X: 1
T: Kilty Town
R: reel
M: 4/4
L: 1/8
K: Gmaj
cA|BG~G2 d2cA| (3Bcd cA BGG2|FD (3FED cD (3FED|
BD (3FED cBA2|BGG2 d2cA|BdcA BG~G2|FAde f2eg| fdcA G2 :|
|: de |~g3a gB(3BBB|eBgB eB~B2|dega b2ag|eaab agef|
g2bg f2af|e3 f edcB|cdec BcdB|AGA Bc :|de|
|:~g3d BGG2|FGAB cBcA|GBBA BABc|dAAG FAD2|
G2BG F2AF|E3F EDCB,|C2EC B,2DB, |1 A,B,CD EGAB :|2 A,G,A,B, G,3||


Tune 536	Setting 13480

